svg/white/zen.svg

<?xml version="1.0" encoding="UTF-8"?>
<svg width="32px" height="32px" viewBox="0 0 32 32" version="1.1" xmlns="http://www.w3.org/2000/svg" xmlns:xlink="http://www.w3.org/1999/xlink">
    <!-- Generator: Sketch 52.5 (67469) - http://www.bohemiancoding.com/sketch -->
    <title>svg/white/zen</title>
    <desc>Created with Sketch.</desc>
    <g id="white/zen" stroke="none" stroke-width="1" fill="none" fill-rule="evenodd">
        <path d="M16,32 C7.163444,32 0,24.836556 0,16 C0,7.163444 7.163444,0 16,0 C24.836556,0 32,7.163444 32,16 C32,24.836556 24.836556,32 16,32 Z M15.4448,17.0824 C13.9652499,17.4776542 12.5774991,18.1590273 11.36,19.088 C12.4001897,20.6006333 14.1243096,21.4971756 15.96,21.48 C18.6293084,21.4940939 20.9262572,19.5961093 21.4156,16.972 C20.4549312,16.7820811 19.478444,16.6835082 18.4992,16.6776 C17.4626216,16.6744275 16.4299211,16.8042881 15.4264,17.064 L15.4448,17.0824 Z M23.136,12.3996 C23.6867533,13.5056493 23.9733361,14.7244134 23.9732,15.96 C23.9732,18.0852328 23.1289546,20.1234216 21.6261881,21.6261881 C20.1234216,23.1289546 18.0852328,23.9732 15.96,23.9732 C14.725106,23.97653 13.5063039,23.6930877 12.3996,23.1452 L9.5476,24.9852 C11.4220417,26.3103127 13.664519,27.0149074 15.96,27 C22.0572236,27 27,22.0572236 27,15.96 C27.0062257,13.6516383 26.2887236,11.3993896 24.9484,9.52 L23.136,12.3996 Z M8.4068,18.6372 C7.31193672,15.5516713 8.20427957,12.1104185 10.660564,9.94572922 C13.1168484,7.78103997 16.6429759,7.32835652 19.5664,8.8024 L22.4184,6.9624 C17.993147,3.71892024 11.857468,4.21739748 8.01380863,8.13266346 C4.17014929,12.0479294 3.7849989,18.1917634 7.1096,22.5564 C9.93481988,17.4192755 15.7917168,14.7393808 21.526,15.96 C21.3176782,12.9113882 18.6774118,10.6088782 15.6288,10.8172 C12.5801882,11.0255218 10.2776782,13.6657882 10.486,16.7144 C9.73624485,17.2810134 9.04302068,17.9187796 8.416,18.6188 L8.4068,18.6372 Z" id="Combined-Shape" fill="#FFFFFF" fill-rule="nonzero"></path>
    </g>
</svg>

<svg width="32" height="32" viewBox="0 0 32 32" xmlns="http://www.w3.org/2000/svg"><path d="M16 32C7.163 32 0 24.837 0 16S7.163 0 16 0s16 7.163 16 16-7.163 16-16 16zm-.555-14.918a11.72 11.72 0 0 0-4.085 2.006 5.52 5.52 0 0 0 4.6 2.392 5.52 5.52 0 0 0 5.456-4.508 15.52 15.52 0 0 0-2.917-.294 12.116 12.116 0 0 0-3.073.386l.019.018zm7.691-4.682a8.013 8.013 0 0 1-7.176 11.574 7.976 7.976 0 0 1-3.56-.829l-2.852 1.84A10.985 10.985 0 0 0 15.96 27C22.057 27 27 22.057 27 15.96a11.04 11.04 0 0 0-2.052-6.44l-1.812 2.88zm-14.73 6.237a8.013 8.013 0 0 1 11.16-9.835l2.852-1.84A11.04 11.04 0 0 0 7.11 22.556a13.294 13.294 0 0 1 14.416-6.596 5.533 5.533 0 0 0-11.04.754 14.582 14.582 0 0 0-2.07 1.905l-.01.018z" fill="#FFF"/></svg>
